X:0455
T:Jackson over the Water.
N:very similar to The Bob of Dunblane
M:6/8
L:1/8
Q:3/8=120
I: :: ::
Z:Jack Campin * www.campin.me.uk * 2009
K:G Dorian
A/G/|FDD  FDD         |G>AG TGFG|A>BA AGF|(G>AG) (GFG)|
     A>BA AGF         |cAc   def|cAA TAGF| G3     G2 ::
g   |fdd  gdd         |fdd   cAA|fdd  gdd| fdd   Td2
g   |fdd (aa/)(b/a/g/)|fdd   def|cAA TAGF| G3     G2 :|
<end>
<start>
